; generated by PrusaSlicer 2.3.0-alpha2+linux-x64 on 2020-12-11 at 01:58:06 UTC

; 

; external perimeters extrusion width = 0.45mm
; perimeters extrusion width = 0.45mm
; infill extrusion width = 0.45mm
; solid infill extrusion width = 0.45mm
; top infill extrusion width = 0.40mm
; first layer extrusion width = 0.42mm

M73 P0 R113
M73 Q0 S114
M201 X1000 Y1000 Z1000 E5000 ; sets maximum accelerations, mm/sec^2
M203 X200 Y200 Z12 E120 ; sets maximum feedrates, mm/sec
M204 P1250 R1250 T1250 ; sets acceleration (P, T) and retract acceleration (R), mm/sec^2
M205 X8.00 Y8.00 Z0.40 E4.50 ; sets the jerk limits, mm/sec
M205 S0 T0 ; sets the minimum extruding and travel feed rate, mm/sec
M107
;TYPE:Custom
M862.3 P "MK3S" ; printer model check
M862.1 P0.4 ; nozzle diameter check
M115 U3.8.1 ; tell printer latest fw version
G90 ; use absolute coordinates
M83 ; extruder relative mode
M104 S240 ; set extruder temp
M140 S85 ; set bed temp
M190 S85 ; wait for bed temp
M109 S240 ; wait for extruder temp
G28 W ; home all without mesh bed level
G80 ; mesh bed leveling
G1 Y-3.0 F1000.0 ; go outside print area
G92 E0.0
G1 X60.0 E9.0 F1000.0 ; intro line
G1 X100.0 E12.5 F1000.0 ; intro line
G92 E0.0
M221 S95
G21 ; set units to millimeters
G90 ; use absolute coordinates
M83 ; use relative distances for extrusion
M900 K45 ; Filament gcode
;Z:0.2
;HEIGHT:0.2
;BEFORE_LAYER_CHANGE
G92 E0.0
;0.2


G1 E-1.40000 F2100.00000
G1 Z0.200 F10800.000
;AFTER_LAYER_CHANGE
;0.2
G1 Z0.400
M73 Q0 S113
G1 X75.197 Y64.054
G1 Z0.200
G1 E1.40000 F2100.00000
M204 S1000
;TYPE:Skirt
G1 F1200.000
G1 X79.301 Y59.302 E0.19686
G1 X84.103 Y55.156 E0.19893
G1 X89.728 Y51.578 E0.20901
G1 X95.370 Y48.976 E0.19482
G1 X101.337 Y47.038 E0.19670
G1 X107.321 Y45.736 E0.19200
G1 X113.256 Y44.933 E0.18781
G1 X119.161 Y44.505 E0.18563
G1 X125.004 Y44.373 E0.18323
G1 X130.835 Y44.504 E0.18289
G1 X136.661 Y44.925 E0.18314
G1 X142.635 Y45.728 E0.18899
G1 X148.677 Y47.041 E0.19387
G1 X154.636 Y48.979 E0.19649
G1 X160.398 Y51.642 E0.19903
G1 X165.818 Y55.094 E0.20148
G1 X170.695 Y59.299 E0.20188
G1 X174.830 Y64.086 E0.19833
G1 X178.355 Y69.596 E0.20509
G1 X181.013 Y75.342 E0.19852
G1 X182.957 Y81.319 E0.19706
G1 X184.257 Y87.279 E0.19129
G1 X185.070 Y93.275 E0.18972
G1 X185.497 Y99.211 E0.18658
G1 X185.627 Y105.000 E0.18156
G1 X185.497 Y110.782 E0.18134
G1 X185.071 Y116.707 E0.18625
G1 X184.264 Y122.680 E0.18899
G1 X182.951 Y128.702 E0.19327
G1 X181.024 Y134.629 E0.19541
G1 X178.393 Y140.331 E0.19688
G1 X174.912 Y145.809 E0.20350
G1 X170.815 Y150.572 E0.19699
G1 X165.722 Y154.974 E0.21106
G1 X160.398 Y158.358 E0.19783
G1 X154.651 Y161.016 E0.19852
G1 X148.681 Y162.957 E0.19682
G1 X142.717 Y164.257 E0.19141
G1 X136.725 Y165.070 E0.18960
G1 X130.789 Y165.497 E0.18658
G1 X125.000 Y165.627 E0.18156
G1 X119.218 Y165.497 E0.18134
G1 X113.293 Y165.071 E0.18625
G1 X107.320 Y164.264 E0.18899
G1 X101.298 Y162.951 E0.19327
G1 X95.371 Y161.024 E0.19541
G1 X89.669 Y158.393 E0.19688
G1 X84.191 Y154.912 E0.20350
G1 X79.428 Y150.815 E0.19699
G1 X75.026 Y145.722 E0.21106
G1 X71.642 Y140.398 E0.19783
G1 X68.984 Y134.651 E0.19852
G1 X67.043 Y128.681 E0.19682
G1 X65.743 Y122.717 E0.19141
G1 X64.930 Y116.725 E0.18960
G1 X64.503 Y110.789 E0.18658
G1 X64.373 Y105.000 E0.18156
G1 X64.503 Y99.218 E0.18134
G1 X64.929 Y93.293 E0.18625
G1 X65.736 Y87.320 E0.18899
G1 X67.049 Y81.298 E0.19327
G1 X68.976 Y75.371 E0.19541
G1 X71.605 Y69.672 E0.19676
G1 X75.165 Y64.104 E0.20722
G1 F8640.000
G1 X78.924 Y59.740 E-1.33000
G1 E-0.07000 F2100.00000
G1 Z0.400 F10800.000
G1 X126.113 Y120.813
G1 Z0.200
G1 E1.40000 F2100.00000
;TYPE:Perimeter
G1 F1200.000
G1 X126.470 Y120.514 E0.01458
G1 X126.872 Y120.282 E0.01458
G1 X127.309 Y120.123 E0.01458
G1 X127.767 Y120.042 E0.01456
G1 X131.450 Y120.036 E0.11550
G1 X131.676 Y120.027 E0.00708
G1 X132.130 Y119.953 E0.01444
G1 X132.567 Y119.807 E0.01444
G1 X133.360 Y119.382 E0.02822
G1 X134.928 Y118.394 E0.05810
G1 X135.385 Y118.223 E0.01531
G1 X135.997 Y118.131 E0.01939
G1 X136.484 Y118.160 E0.01532
G1 X136.926 Y118.267 E0.01426
G1 X137.360 Y118.453 E0.01481
G1 X137.879 Y118.821 E0.01993
G1 X140.801 Y122.001 E0.13544
G1 X141.048 Y122.320 E0.01264
G1 X141.258 Y122.715 E0.01401
G1 X141.400 Y123.139 E0.01402
G1 X141.468 Y123.581 E0.01402
G1 X141.462 Y124.028 E0.01402
G1 X141.382 Y124.468 E0.01402
G1 X141.229 Y124.888 E0.01402
G1 X141.008 Y125.277 E0.01402
G1 X140.725 Y125.623 E0.01402
G1 X140.411 Y125.897 E0.01307
G1 X139.324 Y126.656 E0.04158
G1 X138.225 Y127.344 E0.04063
G1 X137.086 Y127.980 E0.04091
G1 X136.215 Y128.395 E0.03026
G1 X135.304 Y128.741 E0.03054
G1 X134.369 Y129.013 E0.03054
G1 X133.415 Y129.208 E0.03054
G1 X132.448 Y129.326 E0.03054
G1 X131.498 Y129.364 E0.02980
G1 X127.953 Y129.364 E0.11115
G1 X127.557 Y129.329 E0.01246
G1 X127.290 Y129.270 E0.00860
G1 X126.872 Y129.118 E0.01392
G1 X126.470 Y128.886 E0.01458
G1 X126.113 Y128.587 E0.01458
G1 X125.814 Y128.230 E0.01458
G1 X125.582 Y127.828 E0.01458
G1 X125.423 Y127.391 E0.01458
G1 X125.342 Y126.933 E0.01456
G1 X125.336 Y122.654 E0.13417
G1 X125.371 Y122.257 E0.01248
G1 X125.430 Y121.990 E0.00860
G1 X125.582 Y121.572 E0.01392
G1 X125.814 Y121.170 E0.01458
G1 X126.075 Y120.859 E0.01270
G1 X126.364 Y121.102 F10800.000
G1 F1200.000
G1 X126.687 Y120.825 E0.01335
G1 X127.032 Y120.625 E0.01251
G1 X127.407 Y120.489 E0.01251
G1 X127.800 Y120.419 E0.01250
G1 X131.458 Y120.413 E0.11470
G1 X131.714 Y120.403 E0.00802
G1 X132.221 Y120.320 E0.01611
G1 X132.708 Y120.157 E0.01611
G1 X132.931 Y120.051 E0.00774
G1 X133.552 Y119.707 E0.02227
G1 X135.096 Y118.733 E0.05722
G1 X135.480 Y118.590 E0.01285
G1 X136.013 Y118.510 E0.01691
G1 X136.428 Y118.535 E0.01304
G1 X136.807 Y118.626 E0.01221
G1 X137.175 Y118.784 E0.01255
G1 X137.628 Y119.105 E0.01742
G1 X140.513 Y122.244 E0.13368
G1 X140.730 Y122.526 E0.01114
G1 X140.910 Y122.864 E0.01203
G1 X141.032 Y123.228 E0.01203
G1 X141.091 Y123.607 E0.01203
G1 X141.086 Y123.991 E0.01203
G1 X141.016 Y124.368 E0.01203
G1 X140.885 Y124.729 E0.01203
G1 X140.696 Y125.063 E0.01203
G1 X140.453 Y125.360 E0.01203
G1 X140.178 Y125.600 E0.01143
G1 X139.115 Y126.342 E0.04064
G1 X138.033 Y127.019 E0.04004
G1 X136.913 Y127.645 E0.04023
G1 X136.067 Y128.048 E0.02940
G1 X135.185 Y128.383 E0.02959
G1 X134.278 Y128.646 E0.02959
G1 X133.354 Y128.836 E0.02959
G1 X132.417 Y128.950 E0.02959
G1 X131.490 Y128.987 E0.02909
G1 X127.970 Y128.987 E0.11039
G1 X127.615 Y128.956 E0.01117
G1 X127.395 Y128.907 E0.00706
G1 X127.032 Y128.775 E0.01211
G1 X126.687 Y128.575 E0.01251
G1 X126.381 Y128.319 E0.01251
G1 X126.125 Y128.013 E0.01251
G1 X125.925 Y127.668 E0.01251
G1 X125.789 Y127.293 E0.01251
G1 X125.719 Y126.900 E0.01250
G1 X125.713 Y122.670 E0.13262
G1 X125.744 Y122.315 E0.01118
G1 X125.793 Y122.095 E0.00706
G1 X125.925 Y121.732 E0.01211
G1 X126.125 Y121.387 E0.01251
G1 X126.325 Y121.148 E0.00978
G1 F8640.000
G1 X126.687 Y120.825 E-0.11199
G1 X127.032 Y120.625 E-0.09215
G1 X127.407 Y120.489 E-0.09215
G1 X127.800 Y120.419 E-0.09203
G1 X131.458 Y120.413 E-0.84469
G1 X131.714 Y120.403 E-0.05907
G1 X131.876 Y120.376 E-0.03792
G1 E-0.07000 F2100.00000
G1 Z0.400 F10800.000
G1 X126.156 Y122.201
G1 Z0.200
G1 E1.40000 F2100.00000
;TYPE:External perimeter
G1 F1200.000
G1 X126.268 Y121.892 E0.01030
G1 X126.435 Y121.604 E0.01044
G1 X126.649 Y121.349 E0.01044
G1 X126.904 Y121.135 E0.01044
G1 X127.192 Y120.968 E0.01044
G1 X127.505 Y120.854 E0.01044
G1 X127.833 Y120.796 E0.01044
G1 X131.466 Y120.790 E0.11391
G1 X131.752 Y120.778 E0.00897
G1 X132.312 Y120.687 E0.01778
G1 X132.849 Y120.507 E0.01778
G1 X133.104 Y120.386 E0.00882
G1 X133.744 Y120.031 E0.02297
G1 X135.264 Y119.073 E0.05634
G1 X135.575 Y118.957 E0.01039
G1 X136.030 Y118.889 E0.01443
G1 X136.373 Y118.909 E0.01076
G1 X136.688 Y118.985 E0.01016
G1 X136.989 Y119.114 E0.01029
G1 X137.377 Y119.390 E0.01491
G1 X140.224 Y122.488 E0.13192
G1 X140.412 Y122.731 E0.00964
G1 X140.563 Y123.013 E0.01004
G1 X140.664 Y123.317 E0.01004
G1 X140.713 Y123.634 E0.01004
G1 X140.709 Y123.954 E0.01004
G1 X140.651 Y124.269 E0.01004
G1 X140.542 Y124.570 E0.01004
G1 X140.383 Y124.849 E0.01004
G1 X140.181 Y125.097 E0.01004
G1 X139.946 Y125.302 E0.00980
M73 Q1 S113
G1 X138.907 Y126.027 E0.03969
G1 X137.841 Y126.695 E0.03945
G1 X136.740 Y127.310 E0.03955
M73 P1 R113
G1 X135.918 Y127.701 E0.02853
G1 X135.065 Y128.025 E0.02863
G1 X134.188 Y128.280 E0.02863
G1 X133.293 Y128.463 E0.02863
G1 X132.387 Y128.573 E0.02863
G1 X131.483 Y128.610 E0.02837
G1 X127.986 Y128.610 E0.10963
G1 X127.673 Y128.582 E0.00987
G1 X127.501 Y128.544 E0.00551
G1 X127.192 Y128.432 E0.01030
G1 X126.904 Y128.265 E0.01044
G1 X126.649 Y128.051 E0.01044
G1 X126.435 Y127.796 E0.01044
G1 X126.268 Y127.508 E0.01044
G1 X126.154 Y127.195 E0.01044
G1 X126.096 Y126.867 E0.01044
G1 X126.090 Y122.687 E0.13107
G1 X126.143 Y122.260 E0.01349
G1 X125.918 Y121.975 F10800.000
G1 F8640.000
G1 X126.268 Y121.892 E-0.08961
G1 X126.435 Y121.604 E-0.07691
G1 X126.649 Y121.349 E-0.07691
G1 X126.904 Y121.135 E-0.07692
G1 X127.192 Y120.968 E-0.07691
G1 X127.505 Y120.854 E-0.07692
G1 X127.833 Y120.796 E-0.07687
G1 X131.207 Y120.790 E-0.77895
G1 E-0.07000 F2100.00000
G1 Z0.400 F10800.000
G1 X127.767 Y132.042
G1 Z0.200
G1 E1.40000 F2100.00000
;TYPE:Perimeter
G1 F1200.000
G1 X131.450 Y132.036 E0.11550
G1 X132.663 Y131.987 E0.03806
G1 X133.844 Y131.843 E0.03730
G1 X135.010 Y131.605 E0.03730
G1 X136.152 Y131.273 E0.03730
G1 X137.264 Y130.850 E0.03730
G1 X138.344 Y130.336 E0.03750
G1 X139.811 Y129.507 E0.05285
G1 X141.233 Y128.590 E0.05306
G1 X142.805 Y127.440 E0.06104
G1 X143.368 Y127.165 E0.01966
G1 X143.996 Y127.033 E0.02013
G1 X144.478 Y127.034 E0.01510
G1 X145.106 Y127.166 E0.02013
G1 X145.683 Y127.449 E0.02013
G1 X146.046 Y127.733 E0.01445
G1 X148.940 Y130.883 E0.13414
G1 X149.180 Y131.196 E0.01235
G1 X149.317 Y131.431 E0.00852
G1 X149.486 Y131.836 E0.01378
G1 X149.584 Y132.265 E0.01378
G1 X149.609 Y132.536 E0.00853
G1 X149.594 Y132.954 E0.01312
G1 X149.549 Y133.225 E0.00863
G1 X149.407 Y133.681 E0.01496
G1 X149.107 Y134.211 E0.01911
G1 X148.923 Y134.437 E0.00913
G1 X148.624 Y134.720 E0.01291
G1 X146.687 Y136.160 E0.07567
G1 X144.738 Y137.431 E0.07296
G1 X142.679 Y138.597 E0.07418
G1 X140.930 Y139.430 E0.06076
G1 X139.114 Y140.120 E0.06092
G1 X137.248 Y140.662 E0.06092
G1 X135.344 Y141.052 E0.06092
G1 X133.416 Y141.287 E0.06092
G1 X131.498 Y141.364 E0.06018
G1 X127.953 Y141.364 E0.11115
G1 X127.557 Y141.329 E0.01246
G1 X127.068 Y141.198 E0.01588
G1 X126.666 Y141.011 E0.01392
G1 X126.285 Y140.744 E0.01458
G1 X125.971 Y140.430 E0.01392
G1 X125.804 Y140.212 E0.00861
G1 X125.593 Y139.846 E0.01325
G1 X125.419 Y139.370 E0.01589
G1 X125.342 Y138.933 E0.01392
G1 X125.342 Y134.467 E0.14000
G1 X125.419 Y134.030 E0.01392
G1 X125.502 Y133.768 E0.00861
G1 X125.689 Y133.366 E0.01392
G1 X125.944 Y133.002 E0.01392
G1 X126.130 Y132.800 E0.00861
G1 X126.453 Y132.528 E0.01326
G1 X126.685 Y132.380 E0.00861
G1 X127.068 Y132.202 E0.01325
G1 X127.330 Y132.119 E0.00861
G1 X127.708 Y132.053 E0.01201
M73 P1 R112
G1 X127.773 Y132.424 F10800.000
G1 F1200.000
G1 X131.458 Y132.413 E0.11555
G1 X132.694 Y132.363 E0.03877
G1 X133.905 Y132.216 E0.03825
G1 X135.100 Y131.971 E0.03825
G1 X136.272 Y131.631 E0.03825
G1 X137.412 Y131.197 E0.03825
G1 X138.518 Y130.671 E0.03839
G1 X140.007 Y129.830 E0.05361
G1 X141.447 Y128.900 E0.05375
G1 X143.000 Y127.764 E0.06034
G1 X143.491 Y127.524 E0.01714
G1 X144.035 Y127.410 E0.01742
G1 X144.439 Y127.411 E0.01265
G1 X144.982 Y127.525 E0.01742
G1 X145.481 Y127.770 E0.01742
G1 X145.789 Y128.011 E0.01225
G1 X148.651 Y131.126 E0.13265
G1 X148.866 Y131.406 E0.01107
G1 X148.978 Y131.599 E0.00699
G1 X149.126 Y131.952 E0.01199
G1 X149.210 Y132.325 E0.01199
G1 X149.231 Y132.547 E0.00699
G1 X149.218 Y132.916 E0.01159
G1 X149.181 Y133.138 E0.00705
G1 X149.059 Y133.530 E0.01289
G1 X148.795 Y133.998 E0.01684
G1 X148.646 Y134.180 E0.00736
G1 X148.381 Y134.431 E0.01145
G1 X146.472 Y135.850 E0.07460
G1 X144.542 Y137.108 E0.07223
G1 X142.505 Y138.262 E0.07339
G1 X140.781 Y139.083 E0.05986
G1 X138.994 Y139.763 E0.05996
G1 X137.157 Y140.296 E0.05996
G1 X135.284 Y140.679 E0.05996
G1 X133.385 Y140.911 E0.05996
G1 X131.490 Y140.987 E0.05946
G1 X127.970 Y140.987 E0.11039
G1 X127.615 Y140.956 E0.01117
G1 X127.205 Y140.846 E0.01330
G1 X126.855 Y140.683 E0.01211
G1 X126.528 Y140.454 E0.01251
G1 X126.255 Y140.181 E0.01211
G1 X126.118 Y140.002 E0.00706
G1 X125.931 Y139.679 E0.01170
G1 X125.786 Y139.280 E0.01331
G1 X125.719 Y138.900 E0.01211
G1 X125.719 Y134.500 E0.13793
G1 X125.786 Y134.120 E0.01211
G1 X125.854 Y133.905 E0.00706
G1 X126.017 Y133.555 E0.01211
G1 X126.239 Y133.239 E0.01211
G1 X126.391 Y133.073 E0.00706
G1 X126.677 Y132.833 E0.01171
G1 X126.867 Y132.712 E0.00706
G1 X127.205 Y132.554 E0.01171
G1 X127.420 Y132.486 E0.00706
G1 X127.714 Y132.434 E0.00935
G1 X127.510 Y132.853 F10800.000
;TYPE:External perimeter
G1 F1200.000
G1 X127.833 Y132.796 E0.01029
G1 X131.466 Y132.790 E0.11391
G1 X132.724 Y132.739 E0.03948
G1 X133.965 Y132.588 E0.03921
G1 X135.191 Y132.337 E0.03921
G1 X136.392 Y131.989 E0.03921
G1 X137.560 Y131.544 E0.03921
G1 X138.692 Y131.006 E0.03928
G1 X140.202 Y130.153 E0.05437
G1 X141.661 Y129.211 E0.05445
G1 X143.196 Y128.088 E0.05964
G1 X143.615 Y127.884 E0.01462
G1 X144.074 Y127.788 E0.01472
G1 X144.399 Y127.788 E0.01019
G1 X144.858 Y127.885 E0.01472
G1 X145.280 Y128.092 E0.01472
G1 X145.532 Y128.289 E0.01005
G1 X148.362 Y131.369 E0.13115
G1 X148.552 Y131.616 E0.00978
G1 X148.640 Y131.767 E0.00546
G1 X148.765 Y132.067 E0.01020
G1 X148.837 Y132.384 E0.01020
G1 X148.854 Y132.558 E0.00546
G1 X148.842 Y132.878 E0.01005
G1 X148.813 Y133.050 E0.00548
G1 X148.711 Y133.380 E0.01082
G1 X148.482 Y133.785 E0.01457
G1 X148.370 Y133.923 E0.00559
G1 X148.138 Y134.142 E0.00998
G1 X146.256 Y135.541 E0.07354
G1 X144.346 Y136.786 E0.07150
G1 X142.331 Y137.928 E0.07260
G1 X140.633 Y138.736 E0.05896
G1 X138.874 Y139.405 E0.05901
G1 X137.067 Y139.930 E0.05901
G1 X135.223 Y140.307 E0.05901
G1 X133.355 Y140.534 E0.05901
G1 X131.483 Y140.610 E0.05875
G1 X127.986 Y140.610 E0.10963
G1 X127.673 Y140.582 E0.00987
G1 X127.342 Y140.494 E0.01073
G1 X127.045 Y140.355 E0.01030
G1 X126.772 Y140.164 E0.01044
G1 X126.539 Y139.932 E0.01030
G1 X126.432 Y139.792 E0.00551
G1 X126.270 Y139.512 E0.01016
G1 X126.153 Y139.190 E0.01073
G1 X126.096 Y138.867 E0.01030
G1 X126.096 Y134.533 E0.13586
G1 X126.153 Y134.210 E0.01030
G1 X126.206 Y134.042 E0.00551
G1 X126.345 Y133.745 E0.01030
G1 X126.533 Y133.475 E0.01030
G1 X126.652 Y133.346 E0.00551
G1 X126.900 Y133.138 E0.01016
G1 X127.049 Y133.043 E0.00551
G1 X127.453 Y132.871 E0.01376
G1 X127.595 Y132.536 F10800.000
G1 F8640.000
G1 X127.833 Y132.796 E-0.08956
G1 X131.466 Y132.790 E-0.83883
G1 X132.724 Y132.739 E-0.29071
G1 X133.201 Y132.681 E-0.11090
G1 E-0.07000 F2100.00000
G1 Z0.400 F10800.000
G1 X147.166 Y125.106
G1 Z0.200
G1 E1.40000 F2100.00000
;TYPE:Perimeter
G1 F1200.000
G1 X147.034 Y124.478 E0.02013
G1 X147.033 Y123.996 E0.01510
G1 X147.165 Y123.368 E0.02013
G1 X147.440 Y122.805 E0.01966
G1 X148.590 Y121.233 E0.06104
G1 X149.507 Y119.811 E0.05306
G1 X150.336 Y118.344 E0.05285
G1 X150.850 Y117.264 E0.03750
G1 X151.273 Y116.152 E0.03730
G1 X151.605 Y115.010 E0.03730
G1 X151.843 Y113.844 E0.03730
G1 X151.987 Y112.663 E0.03730
G1 X152.036 Y111.451 E0.03804
G1 X152.036 Y107.953 E0.10967
G1 X152.071 Y107.557 E0.01246
G1 X152.130 Y107.290 E0.00860
G1 X152.282 Y106.872 E0.01392
G1 X152.504 Y106.488 E0.01392
G1 X152.671 Y106.270 E0.00861
G1 X152.985 Y105.956 E0.01392
G1 X153.366 Y105.689 E0.01458
G1 X153.787 Y105.493 E0.01458
G1 X154.236 Y105.373 E0.01457
G1 X154.654 Y105.336 E0.01314
G1 X158.933 Y105.342 E0.13417
G1 X159.391 Y105.423 E0.01456
G1 X159.808 Y105.575 E0.01392
G1 X160.051 Y105.702 E0.00861
G1 X160.415 Y105.956 E0.01392
G1 X160.744 Y106.285 E0.01458
G1 X161.011 Y106.666 E0.01458
G1 X161.198 Y107.068 E0.01392
G1 X161.281 Y107.330 E0.00861
G1 X161.358 Y107.767 E0.01389
G1 X161.364 Y111.497 E0.11697
G1 X161.287 Y113.416 E0.06021
G1 X161.052 Y115.344 E0.06092
G1 X160.662 Y117.248 E0.06092
G1 X160.120 Y119.114 E0.06092
